/* XPM */
static char *b6794d66662e485ebacdf130f3cdf874nbAlGkxxratMfIl4[] = {
/* columns rows colors chars-per-pixel */
"64 64 233 2 ",
"   c #724D1E",
".  c #6F6B19",
"X  c #747A1C",
"o  c #796826",
"O  c #767D24",
"+  c #797829",
"@  c #776238",
"#  c #7B7736",
"$  c #5D705A",
"%  c #7E7941",
"&  c #797051",
"*  c #5D7B6C",
"=  c #627B6B",
"-  c #975B1D",
";  c #8E582B",
":  c #846628",
">  c #996120",
",  c #866437",
"<  c #9A6634",
"1  c #8F7634",
"2  c #A9632B",
"3  c #B86927",
"4  c #B36B2D",
"5  c #BC6E2E",
"6  c #A26838",
"7  c #B77336",
"8  c #F15B3F",
"9  c #C5742F",
"0  c #C8732C",
"q  c #C26D36",
"w  c #C87832",
"e  c #D67B35",
"r  c #857C49",
"t  c #8D784F",
"y  c #98754B",
"u  c #A16D49",
"i  c #A67A4A",
"p  c #A57657",
"a  c #B0785E",
"s  c #947F60",
"d  c #AA7D61",
"f  c #BA7572",
"g  c #F35C42",
"h  c #EC6143",
"j  c #EC6F54",
"k  c #75881E",
"l  c #77921F",
"z  c #768422",
"x  c #798224",
"c  c #768B20",
"v  c #779220",
"b  c #789522",
"n  c #799C22",
"m  c #7BA324",
"M  c #7DAB26",
"N  c #7EAD29",
"B  c #7FB42A",
"V  c #7FB82C",
"C  c #7BAF38",
"Z  c #76975F",
"A  c #8D9634",
"S  c #AE9435",
"D  c #80B62B",
"F  c #8AB32F",
"G  c #82BB2E",
"H  c #99A732",
"J  c #81BB32",
"K  c #DB8136",
"L  c #E98B3B",
"P  c #89845B",
"I  c #9A8155",
"U  c #A48759",
"Y  c #99AE45",
"T  c #8D8966",
"R  c #958768",
"E  c #988B73",
"W  c #959478",
"Q  c #AB8667",
"!  c #B6846A",
"~  c #AB8E74",
"^  c #B98E75",
"/  c #BB957B",
"(  c #C48E55",
")  c #F08F40",
"_  c #F99846",
"`  c #FBA659",
"'  c #CF9766",
"]  c #C5957E",
"[  c #F38D77",
"{  c #D8A266",
"}  c #F7AC65",
"|  c #ECB375",
" . c #F8B976",
".. c #F8E77A",
"X. c #FFF473",
"o. c #707DBE",
"O. c #D7748B",
"+. c #DA6B9C",
"@. c #D96FA7",
"#. c #5C918F",
"$. c #7C948A",
"%. c #6CA29F",
"&. c #4E92AC",
"*. c #5494AD",
"=. c #5994AE",
"-. c #549BB1",
";. c #5C9AB2",
":. c #649DB4",
">. c #5BA3B6",
",. c #59A5B7",
"<. c #5DAABA",
"1. c #6EB1A9",
"2. c #66A5B7",
"3. c #6DA3B8",
"4. c #64ADBC",
"5. c #70A3B7",
"6. c #74A6BB",
"7. c #75ACBD",
"8. c #7CACBE",
"9. c #65B1BD",
"0. c #6BC189",
"q. c #5BB9C2",
"w. c #7FAEC1",
"e. c #69B7C2",
"r. c #6CBDC5",
"t. c #7AB6C4",
"y. c #5DC5C3",
"u. c #6EC0C7",
"i. c #6FC0C8",
"p. c #73C2C9",
"a. c #7CC5CC",
"s. c #5ACAEE",
"d. c #65C8E4",
"f. c #7BD0E8",
"g. c #9A9B85",
"h. c #9DA28C",
"j. c #8FA396",
"k. c #A6A695",
"l. c #898DBE",
"z. c #9AB3B2",
"x. c #A8B3A5",
"c. c #B3B6AD",
"v. c #ABBDB4",
"b. c #C89982",
"n. c #C99F88",
"m. c #D19D87",
"M. c #E58F89",
"N. c #E58698",
"B. c #C7A48D",
"V. c #D5A48E",
"C. c #D8AA8D",
"Z. c #C8AC99",
"A. c #D4A691",
"S. c #D7A996",
"D. c #D8AA94",
"F. c #DBAE99",
"G. c #DDB29D",
"H. c #EAAD98",
"J. c #DA86A3",
"K. c #EE94B1",
"L. c #C7B4AA",
"P. c #DFB5A1",
"I. c #DBBAA9",
"U. c #E8A7AD",
"Y. c #E1B6A3",
"T. c #EAB4A7",
"R. c #E2B9A5",
"E. c #E4BDAA",
"W. c #EDAAB7",
"Q. c #AFC3BB",
"!. c #B5C4BD",
"~. c #FEC686",
"^. c #ECCE90",
"/. c #DAC3B9",
"(. c #E6C0AD",
"). c #E9C6B4",
"_. c #E8C7BA",
"`. c #ECCBBB",
"'. c #F3C9BA",
"]. c #8D94C6",
"[. c #84B3C3",
"{. c #86BAC6",
"}. c #8CBBC9",
"|. c #96BCC6",
" X c #92BDC9",
".X c #B1AECD",
"XX c #F2B4C5",
"oX c #87C5CC",
"OX c #82C8CE",
"+X c #94C2CC",
"@X c #9AC4CE",
"#X c #8AC3D2",
"$X c #8CCDD1",
"%X c #9CCAD1",
"&X c #94D1D4",
"*X c #9DD3D6",
"=X c #ADC8C7",
"-X c #B5CCC6",
";X c #B8D3CD",
":X c #A3CBD2",
">X c #AACFD4",
",X c #ABD1D6",
"<X c #A3D7D8",
"1X c #A7D6D8",
"2X c #ACDBDB",
"3X c #B7D7D6",
"4X c #B4DCDC",
"5X c #BBDEDD",
"6X c #B7E0DF",
"7X c #BBE1DF",
"8X c #BDE2E0",
"9X c #D0D2D3",
"0X c #ECCFC1",
"qX c #F6C6CA",
"wX c #EFD1C3",
"eX c #EDD7CC",
"rX c #F1D4C6",
"tX c #F2D6C9",
"yX c #F4DACD",
"uX c #F8C9D3",
"iX c #F6DED2",
"pX c #F9D9D7",
"aX c #C1E1DE",
"sX c #E8E3DE",
"dX c #F8E2D6",
"fX c #F5E2D8",
"gX c #FAE5DB",
"hX c #FCE8DF",
"jX c #C4E6E3",
"kX c #CDE2E5",
"lX c #C5E8E6",
"zX c #F7E7E2",
"xX c #FEECE3",
/* pixels */
"G G G G G G G G G G G G G G G G G G G G G G G G G G G G G G G G G G G G G G G G G G G G G G G G G G G G G G G G G G G G G G G G ",
"G G G G G G G G G G G G G G G G G G G G G G G G G G G G G G G G G G G G G G G G G G G G G G G G G G G G G G G G G G G G G G G G ",
"G G G G G G G G G G G G G G G G G G G G G G G G G G G G G G G G G G G G G G G G G G G G G G G G G G G G G G G G G G G G G G G G ",
"G G G G G G G G G G G G G G G G G G G G G G G G G G G G G G G G G G G G G G G G G G G G v n G G G G G G G G G G G G G G G G G G ",
"G G G G G G G G G G G G G G G G G G G G G G G G G G G G G G G G G G G G G G G G G G G M   X G G G G G G G G G G G G G G G G G G ",
"G G G G G G G G G G G G G G G G G G G G G G G G G G G G G G G G G G G G G G G G G G G k ; . G G G G G G G G G G G G G G G G G G ",
"G G G G G G G G G G G G G G G G G G G G G G G G G G G G G G G G G G G G G G G G G G k , ! , n G G G G G G G G G G G G G G G G G ",
"G G G G G G G G G G G G G G G G G G G G G G G G G G G G G G G G G G G F S w H B m O y A.b.a o N G G G G G G G G G G G G G G G G ",
"G G G G G G G G G G G G G G G G G G G G G G G G G G G J C G G G G G G H h g q 1 I B.E.E.m.] O.U D G G G G G G G G G G G G G G G ",
"G G G G G G G G G G G G G G G G G G G G G G G G G G V 0.y.Z m n b c x 1 j j M.I.`.).`.).V.m.K.f c G G G G G G G G G G G G G G G ",
"G G G G G G G G G G G G G G G G G G D N m b c z x + 1 9.s.j.U ~ / Z.I.0X'.T.).`._.W.qXwXV.V.A.] : n G G G G G G G G G G G G G G ",
"G G G G G G G G G G G G G J J B n z + r U / B.Z.L./.eXsXkXfXhXhXgXpXtX`.`.`.wX`._.W.XX`.V.V.P.m.! o m G G G G G G G G G G G G G ",
"G G G G G G G G G G G G J 0.1.Z U Z.`.dXxXxXzX.X]..XiXyXtXwX`.`.`.`.wXyXiXtX`.rXgXgXpX).V.A.R.F.] ! o N G G G G G G G G G G G G ",
"G G G G G G G G G G G G C q.s.9XhXxXxXxXhXdX0Xl.o.l._.`.wXyXiXdXhXxXgXtX`.wXdXxXxXxXsX>Xz.L.R.R.V.b.d X D G G G G G G G G G G G ",
"G G G G G G G G G G G c t -X8XzXxXxXgXtX`.`.wX.X].9XhXxXxXxXxXxXdXtX`.tXgXxXxXxXxXxXkXf.f.=XR.R.P.b.m.p A G G G G G G G G G G G ",
"G G G G G G G G G G k Q iXxXxXxXgXtXwXyXdXxXxXxXzXxXxXxXxXxXgXtX`.tXhXxXxXxXxXxXxXxX9X$Xf.!.R.R.R.A.b.N.N.Y G G G G G G G G G G ",
"G G G G G G G G G c Q dXxXxXxXiXtXiXxXxXxXxXxXxXxXxXxXxXxXyX`.yXpXW.XXxXxXxXxXxXxXhX).L.c.I.R.R.R.G.b.N.N.A G G G G G G G G G G ",
"G G G G G G G G m t eXxXxXxXiXiXhXxXxXxXxXxXxXxXxXxXxXxXrX`.dXxXqXN.K.hXxXxXxXxXxXiXE.V.V.R.R.R.R.Y.m.A.S., M G G G G G G G G G ",
"G G G G G G G V O Z.xXxXxXpXiXxXxXxXxXxXxXxXxXxXxXxXxXwX`.hXxXxXhXqXpXxXxXxXxXxXxX`.Y.m.F.R.R.R.R.R.V.V.R.Q k G G G G G G G G G ",
"G G G G G G G A 6 0XxXxXgXiXzXpXpXxXxXxXxXxXxXxXxXxXtX`.hXxXxXxXxXxXxXxXxXxXxXxXdXE.F.m.Y.R.R.R.R.R.D.V.R.A.o B G G G G G G G G ",
"G G G G G G H e h H.xXxXiXhXqXO.N.uXxXxXxXxXgXpXxXdX).dXxXxXxXxXxXxXxXxXxXxXxXhX`.R.V.D.R.R.R.R.R.R.D.V.R.Y.y n G G G G G G G G ",
"G G G G G G H h 8 [ hXxXiXxXW.O.O.XXxXxXxXxXuXK.pX`.tXxXxXxXxXxXxXxXxXxXxXxXxXtXR.G.m.P.R.R.R.R.R.R.D.D.R.R.Q c G G G G G G G G ",
"G G G G G G F 7 j H.dXhXiXxXpXU.U.pXxXxXxXxXpXuXpX`.hXxXxXxXxXxXxXxXxXxXxXxXyXE.Y.V.F.R.Y.U.T.R.R.R.A.F.R.R.] O G G G G G G G G ",
"G G G G G G D + A.R.`.dXdXxXxXxXxXxXxXxXxXxXxXxXyXrXxXxXxXxXxXxXxXxXxXxXxXiX(.R.D.V.Y.R.U.K.U.R.R.Y.V.G.R.R.n.+ G G G G G G G G ",
"G G G G G G G + b.R.R.wXhXxXxXxXxXxXxXxXxXxXxXxXtXiXxXxXxXxXxXxXxXxXxXxXyX(.R.F.V.P.R.R.Y.Y.Y.R.R.G.C.R.R.R.n.+ G G G G G G G G ",
"G G G G G G G c p R.R.R.`.hXxXxXxXxXxXxXxXxXxXxXtXdXxXxXxXzXuXpXxXxXhXtXE.R.F.V.G.R.R.R.R.R.R.R.R.^...^.R.R.b.O G G G G G G G G ",
"G G G G G G G B o b.R.Y.R.).iXxXxXxXxXxXxXxXxXxXtXdXxXxXxXXX@.@.pXdX`.R.R.G.D.P.R.R.R.R.R.R.R.R.P...X.X.^.R.Q k G G G G G G G G ",
"G G G G G G G G k @ n.R.R.R.E.`.iXhXxXxXxXxXxXxXyXiXxXxXxXK.+.+.W.E.R.R.R.Y.Y.R.R.R.R.R.R.R.R.R.F.^...^.R.G., k G G G G G G G G ",
"G G G G G G G c > 3 < ^ P.R.R.Y.R.).eXkXfXhXhXxXiXwXhXhXiXW.@.J.Y.R.R.R.R.R.R.R.R.R.R.R.R.R.R.Y.G.R.(.R.R.! - - k B G G G G G G ",
"G G G G G G k 6 } _ L 2 u b.Y.R.R.I.#Xd.!.(.).).).P.E.(.E.R.Y.Y.R.R.R.R.R.R.R.I.L.I.R.R.R.R.R.R.R.R.R.R.^ 2 L ) 4 X D G G G G G ",
"G G G G G n 1 | ~. .` _ e 2 u ^ S.I.#Xd.c.R.R.R.R.Y.Y.R.R.R.Y.R.R.R.R.R.R.R.I.#Xd.v.R.R.R.R.R.R.R.P.A.p 2 L _ }  .i k G G G G G ",
"G G G G G X { ~.~.~. .` _ ) e 4 < u ~ k.F.P.R.R.R.R.R.R.R.R.R.R.R.R.R.R.R.R.I.#Xd.v.R.P.F.A.b.^ d u < 9 _ `  .~.~.| : N G G G G ",
"G G G D X : | | ( i y ( } ` _ _ L K 5 2 6 u p ! ^ / b.] / / / / b.b.b.n.n.b.] ~ E d p u 6 2 4 5 w K _ ` ( i U ( |  .< . D G G G ",
"G G G D . , y s g.v.1.= i  . .` _ e 5 4 e L e 9 5 4 2 - 2 5 5 4 4 4 2 - - 2 4 5 9 w K 0 2 4 K _ }  .| i g.-Xv.Z & y , . G G G G ",
"G G G G z k.=X,XlXjX&Xr.* y { ' i R x.$.@ 9 _ _ ) 9 y R t 4 ) _ _ L 4 y R , 9 _ _ _ 9 y x.x.s i { { t $.aXlX8Xa.7.=Xg.c G G G G ",
"G G G G b W 4X:XjXjX<Xp.e.j.E W v.aXlX*X2.$ < 7 6 W ;XjX+X* , 9 9 < g.3X8X8.$ @ 7 6 E ;XlXlX5X%.= = #.+XjXjX4Xp.t.8XT n G G G G ",
"G G G G N r 3X}.5XjX4Xp.e.}.jXjXlXjXjX<Xp.r.#.$.!.jXlXjX<Xr.%.= g.-XjXlXjX$Xr.%.#.z.aXjXjXjXjX$Xr.i.4.%XjXjX2Xr.t.;X# B G G G G ",
"G G G G G + Q.}.,XjX8XOXe.7.jXjXjXjXjX4Xp.i.e.}.lXjXjXjX2Xp.i.e.1XlXjXjXjX&Xr.i.e.1XlXjXjXjXjX$Xr.r.>.,XjXjX*X<.}.v.O G G G G G ",
"G G G G G c h.@X XjXjX&Xr.2.3XjXlXjXjX8Xa.u.r.7.jXjXjXjX4Xa.i.9.:XjXjXlXjX*Xr.i.4.,XjXjXjXjXjXoXr.e.:.5XjXjX&X-.%Xg.c G G G G G ",
"G G G G G m P >X8.8XjX2Xp.>.@XjXjXjXjXjX$Xr.e.2.5XjXjXjX8XOXi.<.@XlXjXjXjX<Xi.r.2.,XjXjXjXjX8XOXi.9.3.jXjXjXOX=.>XP m G G G G G ",
"G G G G G B # -X6.3XjX8XOX<.[.jXjXjXjXjX*Xi.r.;.3XjXjXjXjX$Xi.<. XjXjXjXjX2Xp.r.>.,XjXjXjXjX8XOXi.,.8.jXjX8Xr.;.=X# B G G G G G ",
"G G G G G G O x.[.@XjXjX&X4.:.8XjXjXjXjX2Xp.r.-.:XjXjXjXjX&Xi.<.}.jXjXjXjX4Xp.r.;.3XjXjXjXjX8XOXr.-. XjXjX8X4.6.x.z G G G G G G ",
"G G G G G G v W @Xw.jXjX4Xr.=.4XjXjXjXjX8Xa.u.-.+XlXjXjXjX<Xp.,.[.jXjXjXjX6Xa.e.;.3XjXjXjXjX8Xa.e.*.>XjXjX6X;.[.W b G G G G G G ",
"G G G G G G M r >X5.5XjX8XOX&.:XjXjXjXjXjX$Xi.-.[.jXjXjXjX2Xp.,.w.jXjXjXjX8XOXe.;.5XjXjXjXjX7Xa.e.=.4XjXjX4X*.|.r M G G G G G G ",
"G G G G G G D + Q.6.>XjXjX<X-.[.jXjXjXjXjX*Xp.,.6.jXjXjXjX6Xa.,.8.jXjXjXjXjX$Xe.:.5XjXjXjXjX6Xa.<.3.jXjXjX,X*.v.+ D G G G G G G ",
"G G G G G G G z k.}. XjXjX6X4.3.jXjXjXjXjX2Xp.<.:.jXjXjXjX8XOX,.6.jXjXjXjXjX&X9.:.8XjXjXjXjX4Xp.,.[.jXjXlX@X:.k.z G G G G G G G ",
"G G G G G G G n T :Xw.jXjXjXoX=.5XjXjXjXjX7Xa.9.=.5XjXjXjXjX$X,.6.jXjXjXjXjX*X<.3.jXjXjXjXjX4Xp.-.@XjXjXlX{.8.T n G G G G G G G ",
"G G G G G G G N % -X8.5XjXjX1X*.,XjXjXjXjXjX$Xe.*.3XjXjXjXjX*X<.6.jXjXjXjXjX<X<.6.jXjXjXjXjX2Xr.=.,XjXjXjX8.z.r N G G G G G G G ",
"G G G G G G G G O v.}.,XjXjX8X:. XlXjXjXjXjX<Xr.&.,XjXjXjXjX2X<.3.jXjXjXjXjX2X<.8.jXjXjXjXjX2Xe.:.5XjXjX8X6.z.O G G G G G G G G ",
"G G G G G G G G c g.:X@XjXjXjX[.8.jXjXjXjXjX4Xa.&.:XlXjXjXjX4X4.3.jXjXjXjXjX4X2.[.jXjXjXjXjX2X4.7.jXjXjX3Xw.g.c G G G G G G G G ",
"G G G G G G G G m P 3X@XjXjXjX:X5.jXjXjXjXjXjX$X-. XlXjXjXjX8Xe.3.jXjXjXjXjX7X2. XjXjXjXjXjX<X,. XjXjXjX>X|.P m G G G G G G G G ",
"G G G G G G G G B # -X>X8XjXjX5X6.4XjXjXjXjXjX<X,.[.lXjXjXjXjXt.3.jXjXjXjXjX8X3.@XjXjXjXjXjX<X>.>XjXjXjX:Xz.# B G G G G G G G G ",
"G G G G G G G G G z x.8XjXjXjXjX[.,XjXjXjXjXjX6X4.8.jXjXjXjXjXoX6.jXjXjXjXjX8X7.:XjXjXjXjXjX<X2.5XjXjXjX>Xx.O G G G G G G G G G ",
"G G G G G G G G G b W lXjXjXjXjX@X%XjXjXjXjXjXjX{.7.jXjXjXjXjX%X7.jXjXjXjXjXjX[.,XjXjXjXjXjX*Xt.jXjXjXjX3XW v G G G G G G G G G ",
"G G G G G G G G G M r 5XjXjXjXjX,X@XjXjXjXjXjXjX*X7.jXjXjXjXjX1X[.jXjXjXjXjXjX X3XjXjXjXjXjX%X@XjXjXjXjX5Xr M G G G G G G G G G ",
"G G G G G G G G G D + !.lXjXjXjX7X:XjXjXjXjXjXjX4X{.8XjXjXjXjX4X XjXjXjXjXjXjX:X5XjXjXjXjXjX,X4XjXjXjXlX-X# V G G G G G G G G G ",
"G G G G G G G G G G c h.lXlXjXjXjX,XjXjXjXjXjXjXjX%X7XjXjXjXjX8X>XjXjXjXjXjXjX,XjXjXjXjXjXjXjXjXlXlXjX-XT c G G G G G G G G G G ",
"G G G G G G G G G G M # W Q.3XjXlXjXjXlXjXjXjXjXjX7XjXjXjXjXjXjX7XjXjXjXjXjXjX5XjXjXjXlXlXlXlXaX-Xx.T # c D G G G G G G G G G G ",
"G G G G G G G G G G G N c + % T g.x.!.;X3XaXjXjXjXlXlXlXlXlXlXlXlXlXlXlXlXlXlXjXjXaX3X-Xv.k.W r # O n B G G G G G G G G G G G G ",
"G G G G G G G G G G G G G G N n k O + # % r P T W W g.g.h.h.h.h.h.h.h.h.g.W W T P r # # O z b m B G G G G G G G G G G G G G G G ",
"G G G G G G G G G G G G G G G G G G G B N M m n n n l v b b b b b b b b l n n n m M B D G G G G G G G G G G G G G G G G G G G G ",
"G G G G G G G G G G G G G G G G G G G G G G G G G G G G G G G G G G G G G G G G G G G G G G G G G G G G G G G G G G G G G G G G ",
"G G G G G G G G G G G G G G G G G G G G G G G G G G G G G G G G G G G G G G G G G G G G G G G G G G G G G G G G G G G G G G G G ",
"G G G G G G G G G G G G G G G G G G G G G G G G G G G G G G G G G G G G G G G G G G G G G G G G G G G G G G G G G G G G G G G G "
};
