/* XPM */
static char *_145e5c9e49346b7e15af768ce06d4d1t6ekhNVOttitfByt[] = {
/* columns rows colors chars-per-pixel */
"64 64 232 2 ",
"   c #5A1616",
".  c #5C1919",
"X  c #710507",
"o  c #730608",
"O  c #7D0B0A",
"+  c #7F1B0D",
"@  c #6B1614",
"#  c #681A19",
"$  c #6E1C1A",
"%  c #761A18",
"&  c #67201F",
"*  c #71211E",
"=  c #6B2928",
"-  c #752624",
";  c #782827",
":  c #7B2C2B",
">  c #7D302F",
",  c #7E3231",
"<  c #773B38",
"1  c #840D0D",
"2  c #890E0E",
"3  c #89110E",
"4  c #8C1211",
"5  c #861818",
"6  c #941412",
"7  c #9B1613",
"8  c #9C1915",
"9  c #931C1A",
"0  c #9D1D19",
"q  c #A51D1D",
"w  c #AC1E1E",
"e  c #B01E1E",
"r  c #9A2617",
"t  c #803813",
"y  c #A9211E",
"u  c #B1211F",
"i  c #A71F21",
"p  c #A91F21",
"a  c #8A2F2B",
"s  c #982624",
"d  c #813635",
"f  c #833B38",
"g  c #AC2121",
"h  c #A62926",
"j  c #B12221",
"k  c #B62928",
"l  c #B42B2A",
"z  c #A5342E",
"x  c #B3312F",
"c  c #BC312E",
"v  c #A83834",
"b  c #B73837",
"n  c #BF3638",
"m  c #C1302F",
"M  c #C23435",
"N  c #C83635",
"B  c #C13739",
"V  c #C4393B",
"C  c #CB3D3D",
"Z  c #8F4E1B",
"A  c #89691F",
"S  c #86413E",
"D  c #8B4038",
"F  c #AB423D",
"G  c #BB4239",
"H  c #907724",
"J  c #B7773D",
"K  c #D1413F",
"L  c #C1693F",
"P  c #CF3F40",
"I  c #894543",
"U  c #8C4946",
"Y  c #8C4D4B",
"T  c #8B514B",
"R  c #95504B",
"E  c #90514E",
"W  c #945A55",
"Q  c #955A56",
"!  c #A74A46",
"~  c #B64542",
"^  c #B64B47",
"/  c #A6534F",
"(  c #B3524D",
")  c #A85B57",
"_  c #B75955",
"`  c #8F6055",
"'  c #98645D",
"]  c #A7625E",
"[  c #B8635D",
"{  c #9A6862",
"}  c #9A6A63",
"|  c #99776B",
" . c #9F7872",
".. c #A46D67",
"X. c #BB6B65",
"o. c #A4726C",
"O. c #A9736E",
"+. c #B8746D",
"@. c #A87771",
"#. c #AC7A74",
"$. c #B37B73",
"%. c #BD7C75",
"&. c #CF4141",
"*. c #C74848",
"=. c #D44443",
"-. c #D94746",
";. c #DB4847",
":. c #D64B49",
">. c #DC4A49",
",. c #CC5C44",
"<. c #D3514C",
"1. c #DB514E",
"2. c #C55A58",
"3. c #DD5452",
"4. c #D95A58",
"5. c #DD5D5B",
"6. c #E05F5E",
"7. c #C5634D",
"8. c #D8635C",
"9. c #CB6864",
"0. c #D86866",
"q. c #C7716C",
"w. c #CE726E",
"e. c #D7706D",
"r. c #DE716D",
"t. c #CD7772",
"y. c #DD7975",
"u. c #E06563",
"i. c #E1716D",
"p. c #E07772",
"a. c #8C942B",
"s. c #A88A39",
"d. c #8AA62D",
"f. c #84B52E",
"g. c #89B12F",
"h. c #82BB2E",
"j. c #8CAB32",
"k. c #87B436",
"l. c #85BB34",
"z. c #89BB3C",
"x. c #8CAD48",
"c. c #8DBC44",
"v. c #90BE45",
"b. c #93BC4C",
"n. c #90A355",
"m. c #98BC57",
"M. c #979768",
"N. c #9B8875",
"B. c #9D8B7A",
"V. c #A7877C",
"C. c #B2847D",
"Z. c #BB837C",
"A. c #B58979",
"S. c #AC9175",
"D. c #9EBC62",
"F. c #A2BD6A",
"G. c #A8BB75",
"H. c #ACBC7B",
"J. c #B1B17F",
"K. c #C8837C",
"L. c #DF827D",
"P. c #E0837E",
"I. c #96C04E",
"U. c #9CC157",
"Y. c #A5C466",
"T. c #ADC573",
"R. c #B2C67B",
"E. c #AC8881",
"W. c #B58B84",
"Q. c #BA8B83",
"!. c #A59483",
"~. c #A99788",
"^. c #AC9B8C",
"/. c #B69389",
"(. c #BD9C94",
"). c #B9A78A",
"_. c #AEBC80",
"`. c #B5BB8D",
"'. c #B9B98F",
"]. c #B4A495",
"[. c #B9A99A",
"{. c #BEB796",
"}. c #BABB94",
"|. c #BEBB9B",
" X c #BDAFA1",
".X c #C18B83",
"XX c #CE8982",
"oX c #D28781",
"OX c #C2938B",
"+X c #DB948E",
"@X c #C39C94",
"#X c #D69E96",
"$X c #E18C86",
"%X c #E0928C",
"&X c #C5A097",
"*X c #C4A49B",
"=X c #D5A39C",
"-X c #C3B59D",
";X c #E2A39B",
":X c #C6ABA2",
">X c #CBAAA2",
",X c #D5A9A1",
"<X c #C4B3A7",
"1X c #C2BEA5",
"2X c #C9B4AA",
"3X c #C6BCAE",
"4X c #CABBAE",
"5X c #D9B5AC",
"6X c #C7BCB0",
"7X c #CABEB3",
"8X c #D8BBB1",
"9X c #E3ABA3",
"0X c #E3B4AC",
"qX c #E4BAB1",
"wX c #BCCA8A",
"eX c #C3CC95",
"rX c #CED0A6",
"tX c #D2D1AB",
"yX c #CBC0B5",
"uX c #D4C5B9",
"iX c #D6C5B9",
"pX c #DACABD",
"aX c #DBD3BA",
"sX c #E2C6BC",
"dX c #DCCEC1",
"fX c #DFD1C4",
"gX c #E5D2C6",
"hX c #E2D4C5",
"jX c #E3D4C9",
"kX c #E5D7C9",
"lX c #E6D7CA",
"zX c #E4D9CE",
/* pixels */
"h.h.h.h.h.h.h.h.h.h.h.h.h.h.h.h.h.h.h.h.h.h.h.h.h.h.h.h.h.h.h.h.h.h.h.h.h.h.h.h.h.h.h.h.h.h.h.h.h.h.h.h.h.h.h.h.h.h.h.h.h.h.h.h.",
"h.h.h.h.h.h.h.h.h.h.h.h.h.h.h.h.h.h.h.h.h.h.h.h.h.h.h.h.h.h.h.h.h.h.h.h.h.h.h.h.h.h.h.h.h.h.h.h.h.h.h.h.h.h.h.h.h.h.h.h.h.h.h.h.",
"h.h.h.h.h.h.h.h.h.h.h.h.h.h.h.h.h.h.h.h.h.h.h.h.h.h.h.h.h.h.h.h.h.h.h.h.h.h.h.h.h.h.h.h.h.h.h.h.h.h.h.h.h.h.h.h.h.h.h.h.h.h.h.h.",
"h.h.h.h.h.h.h.h.h.h.h.h.h.h.h.h.h.h.h.h.h.h.h.h.h.h.h.h.h.h.h.h.h.h.h.h.h.h.h.h.h.h.h.h.h.h.h.h.h.h.h.h.h.h.h.h.h.h.h.h.h.h.h.h.",
"h.h.h.h.h.h.h.h.h.h.h.h.h.h.h.h.h.h.h.h.h.h.h.h.h.h.h.h.h.h.h.h.h.h.h.h.h.h.h.h.h.h.h.h.h.h.h.h.h.h.h.h.h.h.h.h.h.h.h.h.h.h.h.h.",
"h.h.h.h.h.h.h.h.h.h.h.h.h.h.h.h.h.h.h.h.h.h.h.h.h.h.h.h.h.h.h.h.h.h.h.h.h.h.h.h.h.h.h.h.h.h.h.h.h.h.h.h.h.h.h.h.h.h.h.h.h.h.h.h.",
"h.h.h.h.h.h.h.h.h.h.h.h.h.h.h.h.h.h.h.h.h.h.h.h.h.h.h.h.h.h.h.h.h.h.h.h.h.h.h.h.h.h.h.h.h.h.h.h.h.h.h.h.h.h.h.h.h.h.h.h.h.h.h.h.",
"h.h.h.h.h.h.h.h.h.h.h.h.h.h.h.h.h.h.h.h.h.h.l.z.h.h.h.h.h.h.h.h.h.h.h.h.h.h.h.h.h.h.h.h.h.h.h.h.h.h.h.h.h.h.h.h.h.h.h.h.h.h.h.h.",
"h.h.h.h.h.h.h.h.h.h.h.h.h.h.h.h.h.h.h.h.h.b.H.|.F.l.h.h.h.h.h.h.h.h.h.h.h.h.h.h.h.h.h.h.h.h.h.h.h.h.h.h.h.h.h.h.h.h.h.h.h.h.h.h.",
"h.h.h.h.h.h.h.h.h.h.h.h.h.h.h.h.h.h.h.b.H.1X7XyX6X}.T.I.z.h.h.h.h.h.h.h.h.h.h.h.h.h.h.h.h.h.h.h.h.h.h.h.h.h.h.h.h.h.h.h.h.h.h.h.",
"h.h.h.h.h.h.h.h.h.h.h.h.h.h.h.h.h.c.H.1XyX6X@X%.:XyXyXpXtXwXY.I.z.l.h.h.h.h.h.h.h.h.h.h.h.h.h.h.h.h.h.h.h.h.h.h.h.h.h.h.h.h.h.h.",
"h.h.h.h.h.h.h.h.h.h.h.h.h.h.h.c.H.1XyX4XOX_ l u ~ OX6XyXpXkXkXaXtXeXT.U.v.l.h.h.h.h.h.h.h.h.h.h.h.h.h.h.h.h.h.h.h.h.h.h.h.h.h.h.",
"h.h.h.h.h.h.h.h.h.h.h.h.h.c.H.1XyX2X.X( l w p u e l X.<X7XuXfXkXkXkXkXhXaXrXwXT.U.v.l.h.h.h.h.h.h.h.h.h.h.h.h.h.h.h.h.h.h.h.h.h.",
"h.h.h.h.h.h.h.h.h.h.h.c.G.1X7X2XZ.^ j e u g g u j u g ^ @X6XyXdXkXkXkXkXkXkXkXkXhXaXrXeXR.Y.b.z.l.h.h.h.h.h.h.h.h.h.h.h.h.h.h.h.",
"h.h.h.h.h.h.h.h.h.c.G.1X7X:X%.~ g w u j u g g u j u g p x %.2XyXuXhXkXkXkXkXkXkXkXkXkXkXkXhXaXtXeXwXT.U.v.l.h.h.h.h.h.h.h.h.h.h.",
"h.h.h.h.h.h.h.c.G.1X7X*X+.b j e p g u j u g g u j u g g e j ( &X7XuXfXkXkXkXkXkXkXkXkXkXkXkXkXkXkXkXkXhXaXtXeXR.b.h.h.h.h.h.h.h.",
"h.h.h.h.h.z.G.1X6X&XX.v g e u u g g u j u g g u j u g g u u e b Z.4XyXpXjXkXkXkXkXkXkXkXkXkXkXkXkXkXkXkXkXkXkXkXaXY.h.h.h.h.h.h.",
"h.h.h.h.h.F.7X@X[ x e p g u j u g g u j u g g u j u g g u j u w h _ *X7XyX7XyXuXuXpXpXdXfXhXhXhXkXkXkXkXkXkXkXkXkXaXT.l.h.h.h.h.",
"h.h.h.h.l.}.2X~ e e u g g u j u g g u j u g g u j j p g u j u g g e b @X6X[.].].].].[.[.[.[. X<X<X<X4X4XyXuXuXpXpXpXpXR.l.h.h.h.",
"h.h.h.h.b.3X&Xz u j u g g u j j g g u j u g g u u j p g u j j g g u e X.6X X].].].].].].].].].].].].].].].].].].].!.!.!.x.h.h.h.",
"h.h.h.h.G.yXK.g g u u j p j u u g g u u u g g u u g p j u u u i g u e ~ 2X3X].].].].].].].].].].].].].].].].].].~.B.B.B.x.h.h.h.",
"h.h.h.l.}.7X[ w g u u j g g e e w w e u u p w e e w w u j j j g j u u l @X7X[.].].].].].].].].].].].].].].].].].V.B.B.B.n.h.h.h.",
"h.h.h.b.3X2X~ w g u j u p g b 2.q.K.XXXXXXXXK.t.9._ 2.<.:.-.C B C j u g %.yX<X].].].].].].].].].].].].].].].].!.B.B.B.B.M.l.h.h.",
"h.h.h.G.7X*Xx w g j u u p g #X:XV. .| |  .V.E./.(.[.:X>X5Xp.C C -.l u w _ 6X6X[.].].].].].].].].].].].].].].^.B.B.B.B.B.B.k.h.h.",
"h.h.z.|.yX.Xj u g g u u g w q. .              . . # = < &X0.V =.>.m u p b :X7X<X].].].].].].].].].].].].].^.V.B.B.B.B.B.B.n.h.h.",
"h.h.m.3X7XX.e u p p u u g w ^ /.. . . . . . . . . # & S =X1.B -.>.N w i j .XyX3X[.].].].].].].].].].].].^.V.B.B.B.B.B.B.B.M.l.h.",
"h.h.H.7X2X^ e j x l u u g p l OX=   . . . . . . & - - Q +X-.n -.1.4.G h e X.6X6X X].].].].].].].].].^.!.B.B.B.B.B.B.B.B.B.B.x.h.",
"h.z.|.7X*Xx l K.8X5Xq.j u p u K.T   . . . . # - ; ; - ..y.=.B 4.9XsXpXXXl ~ 2X7X<X!.!.~.~.~.~.~.!.B.B.B.B.B.B.B.B.B.B.B.B.B.n.h.",
"h.m.4XyXQ.g q.pXC.W.pX2.w p l y.}   . . # * ; ; ; ; - #.r.C V %XuX} o.pX9.l @X7X6X~.B.B.B.B.B.B.B.B.B.B.B.B.B.B.B.B.B.B.B.B.M.k.",
"h.H.7X7XX.g #X(.: d 2XK.j l C i.E.. . $ - ; - - ; ; ; Z.5.C C 9X(.: d 2XK.e %.yX6X[.B.B.B.B.B.B.B.B.B.B.B.B.B.B.B.B.B.B.B.B.B.n.",
"z.|.7X4X^ q XX7XQ } pXw.C C C u.(.< S I U U U I I f f K.3.V =.$XuXo.#.pX2.w _ 6X6X3X!.B.B.B.B.B.B.B.B.B.B.B.B.B.B.B.B.B.B.N.N.M.",
"D.4X7X:Xb q b ,XpXpX#X<.>.&.V 5.5X,X,X,X=X=X=X=X=X=X>X+X>.B -.3.;XpXsXoXl e v :X7X6X[.B.B.B.B.B.B.B.B.B.B.B.B.N.| | ' T S a Z k.",
"`.7XyXOXj g p x 2.0.*.C >.-.B >.4.*.<.3.:.V :.3.*.<.0.5.-.n -.>.>.*.4.K j u h .XyX6X<X!.B.B.B.B.B.N.| } ` T D a % % 1 o o O A h.",
"m.F.S.~ u u g M =.;.&.V >.-.n -.>.V P >.-.B -.>.B =.;.>.-.B >.>.-.n -.>.M g p X.yX7X6X~.| } Q U d a 5 5 o O O O X O O X O + a.h.",
"h.h.H u j M c -.>.>.-.n -.>.B -.>.C C >.-.B >.>.B -.>.>.&.V >.>.=.B >.>.-.l w b %.] R a % O O O X O O O X O O O X O O X O t f.h.",
"h.h.d.G =.>.V C >.>.>.B -.>.B =.>.C C >.-.B >.-.n -.>.>.C C >.>.P V >.>.>.B l j w 1 O O X O O O X O O O o 1 3 1 o 1 o o O A h.h.",
"h.h.f.7.>.>.=.B >.>.>.V C ;.V C >.C V >.=.B -.=.n -.-.;.V C >.>.V &.>.>.-.n -.N y 1 O O o O O O O 4 6 1 4 8 7 2 2 8 1 4 3 a.h.h.",
"h.h.h.s.>.>.-.n -.>.>.=.2.r.9.9.r.e.9.y.e.w.y.y.w.y.y.L.t.L.r.>.B -.>.>.=.B >.>.l O O o o 1 4 1 4 8 7 1 6 7 z ) +.K.OXv r d.h.h.",
"h.h.h.j.:.>.>.V =.>.>.-.XXkXkXkXkXkXkXkXkXkXkXkXkXkXkXzXzXzX%X-.n -.>.>.C C >.>.h O O o 1 6 7 1 0 h v F ( h X.W.} Q C.v Z f.h.h.",
"h.h.h.g.,.>.>.C V ;.-.-.w.zX(.@.@.o.o...../.o.' ' Q Q Q W.jXr.=.B -.-.;.B =.>.-.r O 1 O 8 y s 1 X.OXC.@.@Xz +.U : , $.h A h.h.h.",
"h.h.h.h.J ;.3.e.w.P.$XL.e.hXo.@ @ @ @ @ @ ' ; @ @ @ @ @ C.sX4.:.9.p.p.r.2.1.>.-.9 4 ! ..%.Z.Z.9 .XY , S Z.h %.I > S +.0 a.h.h.h.",
"h.h.h.h.s.-.r.8X&X(.*XsXe.sXW.@ @ @ @ @ $ ' ; @ @ @ @ $ :X0X>.4.8X*X*X2XsX0.;.&.8 y Z.Q U Y O.s Q.S > E %.h Z.f , Y X.r a.h.h.h.",
"h.h.h.h.j.:.i.Q., , E 8X8.qX*X$ @ @ @ @ $ } ; @ @ @ @ : uX;X;.2.W.d d E 8X8.>.C 8 h $., : U ] s Q.f > ' X.h C.d > Q _ r d.h.h.h.",
"h.h.h.h.g.,.u./., , Y 5X4.;X4X- @ @ @ @ $ } - @ @ @ @ f fX%X-.2.W., > E 5X4.>.M 7 v #., > Q R z Q., > @.( z $., d O.F Z f.h.h.h.",
"h.h.h.h.f.L u./.d , I ,X3.%XpX, @ @ @ @ $ } - @ @ @ @ E jXL.=.2.W., , Q ,X1.>.c 7 F O., , } f F C.> , C.v F @X#.O.+.h Z h.h.h.h.",
"h.h.h.h.h.J 6.OX, : I =X3.L.fXS @ @ @ $ * } ; @ @ @ @ ' kXr.P 2.C.: : Q #X>.>.l 7 ( ..: , ..a ( W.E Q Q.h s ! z 5 8 7 A h.h.h.h.",
"h.h.h.h.h.s.4.,X#.#.W.=X>.r.jXQ @ @ @ , ' } } > @ @ @ o.jX0.C 9.&Xo...C.+X>.-.g 7 _ } d U #.5 ^ .X] ! z 8 1 6 6 1 8 8 H h.h.h.h.",
"h.h.h.h.h.a.1.r.r.9.0.5.>.0.hX} @ @ @ : T } E ; @ @ @ C.gX5.C *.r.y.e.w.0.>.=.y 7 X.(.Z.%./ 4 0 0 4 2 7 8 1 6 6 1 8 0 a.h.h.h.h.",
"h.h.h.h.h.j.<.;.;.C C >.-.4.gX#.@ @ @ @ * } * @ @ @ @ /.sX4.C C ;.;.C V >.>.K q 8 s v h 0 4 4 8 8 4 4 8 8 1 7 6 1 7 r a.h.h.h.h.",
"h.h.h.h.h.g.,.>.>.&.V >.>.3.sXW.@ @ @ @ * } $ @ @ @ $ (.sX3.V &.>.>.C C >.>.C 8 8 1 6 8 8 4 6 8 8 4 4 7 7 1 7 9 5 h z d.h.h.h.h.",
"h.h.h.h.h.g.,.>.>.=.B >.>.1.qX(.$ @ @ @ - } $ @ @ @ $ :XqX>.B =.>.>.V &.>.>.B 8 8 1 6 8 8 1 6 8 7 4 9 z ! ) +.A./.).).b.h.h.h.h.",
"h.h.h.h.h.f.,.>.>.-.B >.>.>.0X&X$ @ @ @ - } $ @ @ @ - 2X0X>.B =.>.>.B =.>.>.c 8 8 1 6 7 7 3 s F [ $.S.J.G.F.m.b.c.c.z.l.h.h.h.h.",
"h.h.h.h.h.g.,.>.>.-.B -.>.>.9X:X$ @ @ @ - } $ @ @ @ - 7X9X>.B -.>.>.B -.>.>.l 7 7 1 0 z ) $.).J.F.m.z.l.h.h.h.h.h.h.h.h.h.h.h.h.",
"h.h.h.h.h.g.,.;.;.-.B -.;.>.0X:X$ @ @ @ - ' $ @ @ @ ; uX;X;.B =.;.-.B -.;.-.g 0 z ) Q.).H.m.c.l.h.h.h.h.h.h.h.h.h.h.h.h.h.h.h.h.",
"h.h.h.h.h.j.8.5.8.0.2.0.0.e.8X:XT Y Y Y Q V.T Y Y Y Q uX,Xe.2.9.0.0.2.0.0.4._ Z.[._.m.z.h.h.h.h.h.h.h.h.h.h.h.h.h.h.h.h.h.h.h.h.",
"h.h.h.h.h.m.-X-X-X-X|.|.|.|.|.}.}.}.`.`.`.`.`.`.`.`.`.`.`.`.`.'.'.'.{.{.-X-X}.F.c.h.h.h.h.h.h.h.h.h.h.h.h.h.h.h.h.h.h.h.h.h.h.h.",
"h.h.h.h.h.z.c.c.c.z.z.z.z.z.l.l.l.l.l.l.l.l.l.l.l.l.l.l.l.l.l.l.l.l.l.z.z.c.l.h.h.h.h.h.h.h.h.h.h.h.h.h.h.h.h.h.h.h.h.h.h.h.h.h.",
"h.h.h.h.h.h.h.h.h.h.h.h.h.h.h.h.h.h.h.h.h.h.h.h.h.h.h.h.h.h.h.h.h.h.h.h.h.h.h.h.h.h.h.h.h.h.h.h.h.h.h.h.h.h.h.h.h.h.h.h.h.h.h.h.",
"h.h.h.h.h.h.h.h.h.h.h.h.h.h.h.h.h.h.h.h.h.h.h.h.h.h.h.h.h.h.h.h.h.h.h.h.h.h.h.h.h.h.h.h.h.h.h.h.h.h.h.h.h.h.h.h.h.h.h.h.h.h.h.h.",
"h.h.h.h.h.h.h.h.h.h.h.h.h.h.h.h.h.h.h.h.h.h.h.h.h.h.h.h.h.h.h.h.h.h.h.h.h.h.h.h.h.h.h.h.h.h.h.h.h.h.h.h.h.h.h.h.h.h.h.h.h.h.h.h.",
"h.h.h.h.h.h.h.h.h.h.h.h.h.h.h.h.h.h.h.h.h.h.h.h.h.h.h.h.h.h.h.h.h.h.h.h.h.h.h.h.h.h.h.h.h.h.h.h.h.h.h.h.h.h.h.h.h.h.h.h.h.h.h.h.",
"h.h.h.h.h.h.h.h.h.h.h.h.h.h.h.h.h.h.h.h.h.h.h.h.h.h.h.h.h.h.h.h.h.h.h.h.h.h.h.h.h.h.h.h.h.h.h.h.h.h.h.h.h.h.h.h.h.h.h.h.h.h.h.h.",
"h.h.h.h.h.h.h.h.h.h.h.h.h.h.h.h.h.h.h.h.h.h.h.h.h.h.h.h.h.h.h.h.h.h.h.h.h.h.h.h.h.h.h.h.h.h.h.h.h.h.h.h.h.h.h.h.h.h.h.h.h.h.h.h.",
"h.h.h.h.h.h.h.h.h.h.h.h.h.h.h.h.h.h.h.h.h.h.h.h.h.h.h.h.h.h.h.h.h.h.h.h.h.h.h.h.h.h.h.h.h.h.h.h.h.h.h.h.h.h.h.h.h.h.h.h.h.h.h.h."
};
