/* XPM */
static char *cecd5d14705a41f18b4b4b5e4732bd27OL76fyBGyqpkZ2w8[] = {
/* columns rows colors chars-per-pixel */
"64 64 202 2 ",
"   c #521D2A",
".  c #601E30",
"X  c #57232C",
"o  c #5B2E2D",
"O  c #5B352C",
"+  c #5D3A2C",
"@  c #622533",
"#  c #78293C",
"$  c #673736",
"%  c #763439",
"&  c #78343A",
"*  c #783C39",
"=  c #67542F",
"-  c #684231",
";  c #65483A",
":  c #794938",
">  c #6B5430",
",  c #795437",
"<  c #7A5B36",
"1  c #7B5238",
"2  c #6D612E",
"3  c #716E2F",
"4  c #72792E",
"5  c #7A6A35",
"6  c #7A6838",
"7  c #7C7434",
"8  c #7C7C33",
"9  c #6C3743",
"0  c #6E5041",
"q  c #765848",
"w  c #876858",
"e  c #8C7A55",
"r  c #A57C5D",
"t  c #905F63",
"y  c #936960",
"u  c #967665",
"i  c #A77E60",
"p  c #A27671",
"a  c #78972D",
"s  c #7C8333",
"d  c #7E8C32",
"f  c #7E9A31",
"g  c #7CA22E",
"h  c #7EAD2E",
"j  c #7FBA2A",
"k  c #7FA030",
"l  c #85963E",
"z  c #80A72F",
"x  c #80A82F",
"c  c #81B42E",
"v  c #8BB42F",
"b  c #82BB2E",
"n  c #82A633",
"m  c #96AE33",
"M  c #8EB230",
"N  c #85BB33",
"B  c #88BC37",
"V  c #89B539",
"C  c #8BBB3B",
"Z  c #A0A732",
"A  c #B5A53F",
"S  c #A8805F",
"D  c #94A647",
"F  c #8EBB40",
"G  c #91BE43",
"H  c #96B549",
"J  c #96B748",
"K  c #95BC4A",
"L  c #9CB953",
"P  c #9FB858",
"I  c #B0A642",
"U  c #BDA75F",
"Y  c #A4B25C",
"T  c #A2BB5B",
"R  c #AB8464",
"E  c #AF896B",
"W  c #B28B6C",
"Q  c #AF946B",
"!  c #B39B67",
"~  c #AB8A76",
"^  c #B18E7A",
"/  c #B79575",
"(  c #B79879",
")  c #BC9C7D",
"_  c #A3A265",
"`  c #B8AB68",
"'  c #A9BA65",
"]  c #AEBC6B",
"[  c #B6AA73",
"{  c #BBAB79",
"}  c #B2B973",
"|  c #BAB77D",
" . c #B7B878",
".. c #C0AD56",
"X. c #C4AE63",
"o. c #CCB478",
"O. c #93C046",
"+. c #96C14A",
"@. c #98C14E",
"#. c #9DC354",
"$. c #A4C45C",
"%. c #A6C561",
"&. c #AAC465",
"*. c #AEC56C",
"=. c #AEC86C",
"-. c #B1C86D",
";. c #B3C972",
":. c #B9C17B",
">. c #BBCC7C",
",. c #B78C88",
"<. c #B99682",
"1. c #B69881",
"2. c #BC9F84",
"3. c #BD9B88",
"4. c #BFA285",
"5. c #BEB684",
"6. c #C49E89",
"7. c #C39892",
"8. c #C1A385",
"9. c #C3A886",
"0. c #C4A48C",
"q. c #C6A98E",
"w. c #C8B78E",
"e. c #C4B98B",
"r. c #D2B98B",
"t. c #C7A991",
"y. c #CAAA96",
"u. c #CBAD94",
"i. c #D1AA95",
"p. c #CDB396",
"a. c #CBBB94",
"s. c #CFB29A",
"d. c #CDBA98",
"f. c #D3B59D",
"g. c #D5B99E",
"h. c #D8BC9F",
"j. c #D1A7A3",
"k. c #D7B6A4",
"l. c #D6BCA2",
"z. c #D9BCA2",
"x. c #DDB7AD",
"c. c #DEBAAE",
"v. c #DFB7B1",
"b. c #DFBAB0",
"n. c #E0B7B1",
"m. c #E1BCB2",
"M. c #BDCB82",
"N. c #C1CC84",
"B. c #C7C38D",
"V. c #C7CF8A",
"C. c #C8D08F",
"Z. c #CBC896",
"A. c #D8C49D",
"S. c #D1CC9E",
"D. c #CCD194",
"F. c #CFD29B",
"G. c #D1D29C",
"H. c #DAC3A5",
"J. c #D5C8A2",
"K. c #DCC4AA",
"L. c #D5D5A4",
"P. c #DBD5A5",
"I. c #DCD6AB",
"U. c #DEC9B2",
"Y. c #E1D4AD",
"T. c #E4C4B5",
"R. c #E3CBB5",
"E. c #E5C5BA",
"W. c #E6CABB",
"Q. c #E8CBBB",
"!. c #E4D2B4",
"~. c #E6D8B5",
"^. c #E4D2BB",
"/. c #ECD5BD",
"(. c #E7DABE",
"). c #EADABC",
"_. c #E7CAC1",
"`. c #E9CDC4",
"'. c #E7D5C0",
"]. c #ECD3C5",
"[. c #ECDBC3",
"{. c #EDD4CB",
"}. c #EFD9CD",
"|. c #F0DBC2",
" X c #F0DCC3",
".X c #F1DDC6",
"XX c #F1DCCD",
"oX c #F2DFCE",
"OX c #EFD9D0",
"+X c #F1DDD2",
"@X c #F3E1CD",
"#X c #F2E1CE",
"$X c #F3E1D3",
"%X c #F3E2D2",
"&X c #F4E2D3",
"*X c #F4E3D4",
"=X c #F4E5D4",
"-X c #F6E4DA",
";X c #F7E8DD",
":X c #F9E9DF",
">X c #FCEDE3",
",X c #FDF0E6",
/* pixels */
"b b b b b b b b b b b b b b b b b b b b b b b b b b b b b b b b b b b b b b b b b b b b b b b b b b b b b b b b b b b b b b b b ",
"b b b b b b b b b b b b b b b b b b b b b b b b b b b b b b b b b b b b b b b b b b b b b b b b b b b b b b b b b b b b b b b b ",
"b b b b b b b b b b b b b b b b b b b b b b b b b b b b b b b b b b b b b b b b b b b b b b b b b b b b b b b b b b b b b b b b ",
"b b b b b b b b b b b b b b b b b b b b b b b b b b b b b b b b b b b b b b b b b b b b b b b b b b b b b b b b b b b b b b b b ",
"b b b b b b b b b b b b b b b b b b b b b b b b b b b b b b b b b b b b b b b b b b b b b b b b b b b b b b b b b b b b b b b b ",
"b b b b b b b b b b b b b b b b b b b b b b b b b b b b b b b b b b b b b b b b b b b b b b b b b b b b b b b b b b b b b b b b ",
"b b b b b b b b b b b b b b b b b b b b b b b b b b b b b b b b b b b b b b b b b b B $.-.G B -.;.C b b b b b b b b b b b b b b ",
"b b b b b b b b b b b b b b b b b b b b b b b b b b b b b b b b b b b b b b b b b b >.)..XD.N.[.|.;.B O.N b b b b b b b b b b b ",
"b b b b b b b b b b b b b b b b b b b b b b b b b b b b b b b b b b b b b b b b b C I. X X).). X XP.D.~.C.G b b b b b b b b b b ",
"b b b b b b b b b b b b b b b b b b b b b b b b b b b b b b b b b b b b b b b N C +.Y. X[..X.X X X).[. X.XV.b b b b b b b b b b ",
"b b b b b b b b b b b b b b b b b b b b b b b b b b b b b b b b b b b b b b C V.Y.P.).|.oX=X=X=X=X.X[..X.XG.b b b b b b b b b b ",
"b b b b b b b b b b b b b b b b b b b b b b b b b b b b b b b b b b b b b b >.|..X#X#X#X#X=X=X=X=X[.[.=X#XN.#.$.O.b b b b b b b ",
"b b b b b b b b b b b b b b b b b b b b b b b b b b b b b b b b b b b b N L d.g.l.'.=X=X=X=X#X^.!.K.[.=X*XI.H.H.J.&.b b b b b b ",
"b b b b b b b b b b b b b b b b b b b b b b b b b b b b b b b b b b b C ` ( R S S / ^.=X=X=X[.z.z.z.K.R.K.l./ R W { Y B b b b b ",
"b b b b b b b b b b b b b b b b b b b b b b b b b b b b b b b b b b N [ ) i r r r 8.[.=X=X%XR.z.z.z.z.h.p.H.) r r r ) [ N b b b ",
"b b b b b b b b b b b b b b b b b b b b b b b b b b b b b b b b b b J 9./ r r E u.[.=X=X[.K.z.z.z.h.z.z.g.l.R.8.E R ) { B b b b ",
"b b b b b b b b b b b b b b b b b b b b b b b b b b b b b b b b b b J 8.4.( q.U.#X=X=X}.K.g.z.z.z.l.l.z.z.p.^.!.l.p.w.J b b b b ",
"b b b b b b b b b b b b b b b B B b N +.#.C b b b b b b b b b b b b &.K.K.^.}.=X=X*X=XR.g.g.2.1.q.g.g.0.4.q.H.]./././.N.B b b b ",
"b b b b b b b b B #.#.B b N =.L.L.%.M.[.[.L.G j b b b b b b b b N C L.&X%X&X=X*X*X*X=X].l.g.u.2.u.g.g.t.( q.f./././././.&.b b b ",
"b b b b b b b O.G.[.[.D.G &.[.oXoX(.[.oXoXoX>.#.=.=.F b #.-.#.C C.L.(.*X%X%X%X&X&X%X*X}.z.f.g.g.g.g.g.g.g.g.p.R./././.].N.b b b ",
"b b b b b b b N.oXoXoXoXL.P.oXoXoXoXoXoXoXoX(.[.oXoXL.=.(.oX[.D.[.oX%X%X=X=X*X%X&X&XoXK.u.f.f.f.f.f.f.f.f.f.u.K./././.!.$.b b b ",
"b b b b b b b F.oXoXoXoXoXoXoXoXoXoXoXoX%X%XoXoXoXoX}.(.&X&XoXoXoX%X%X=X>X>X>X=X%X%XoXz.0.p.f.f.f.f.f.f.f.f.p.l.S.*.&.K b b b b ",
"b b b b b @.;.I.oXoXoX%X%X%XoXoX%X%X%X%X%X%X%XoXoXoXoX&X>X,X=XoX%X%X%X-X,X,X,X=X%X%X+XT.f.0.s.f.f.f.f.f.f.f.s.s.J.C j b b b b b ",
"b b b N ;.(.oXoXoXoX+X%X%X%X%X%X%X%X%X%X%X%X%X%X%X%X+X*X>X>X*X%X%X%X%X%X;X:X-X%X%X%X%XR.z.u.0.s.f.f.f.s.y.0.0.t.K.G b b b b b b ",
"b b b %.[.oXoXoXoXoX+X%X%X%X%X%X%X%X%X%X%X%X%X%X%X%X%X%X%X%X%X*X;X;X=X%X%X%X%X%X%X%X%X}.c.k.u.0.u.f.3.w q 0 q 1.B.B b b b b b b ",
"b b B G.oXoXoXoX+X+X%X:X>X:X$X%X%X%X%X+X%X=X;X-X*X+X+X+X%X%X-X>X,X,X>X=X%X%X%X+X+X%X+X[.A.o.o.U ) t.0.w ; ; u ( J b b b b b b b ",
"b b G ~.oX}.}.+X+X+X=X>X>X>X-X;X>X>X>X*X-X>X,X,X>X%X+X%X:X>X>X>X>X>X>X>X>X>X:X*X%X%X}./.Y.o...I A ! 6.0.~ ~ 3.! m v b b b b b b ",
"b b C !.oX}.}.+X+X+X+X%X-X%X%X>X>X>X>X>X>X>X>X>X>X-X%X>X>X>X>X>X>X>X>X>X>X>X>X>X>X>X>X-X!.A.r.o.X.` Q ^ ~ ^ Q I Z m M v b b b b ",
"b b b M.}.oX}.+X+X+X+X+X+X+X+X*X;X>X>X>X>X>X>X>X>X>X>X>X>X>X>X>X>X>X>X>X>X>X>X>X>X>X>X>XoX+X].c.k.i.<.3.<.<.D v M M v b b b b b ",
"b b b C N.].}.}.+X%X;X>X:X%X+X%X+X-X>X>X>X,X>X>X>X>X,X,X>X>X>X>X,X,X>X>X>X>X>X>X>X>X>X-X+X+X+X}.W.k.6.6.0.0.J b b b c b b b b b ",
"b b b B M.].{.}.oX%X>X>X>X*X-X;X%X>X>X>X>X>X>X>X>X>X>X>X>X>X>X>X>X>X>X>X>X>X>X>X>X;X%X+XoX+XoX+X+X].z.i.i.{ B b b b b b b b b b ",
"b b b *.].].].}.oX+X+X*X+X+X+X+X*X>X>X>X>X>X>X>X>X>X>X>X>X>X>X>X>X>X>X>X>X>X>X>X>X:X%X+X+XoXoXoX].Q.W.K.| F b b b b b b b b b b ",
"b b b *.].{.{.}.oXoX+XoXoXoX+X*X:X>X>X>X>X>X>X>X>X>X>X>X>X>X>X>X>X>X>X>X>X>X>X>X>X>X>X>X:X+XoXoX].W.W.K.$.b b b b b b b b b b b ",
"b b b C Z.].].{.oX-X:X-X+X}.*X>X>X>X>X>X>X>X>X>X>X>X>X>X>X>X>X>X>X>X>X>X>X>X>X>X:X>X>X>X>X+X}.oX}.Q.W.W.H.K b b b b b b b b b b ",
"b b b K S.].{.}.+X>X>X>X*X}.+X:X>X>X>X>X>X>X>X>X>X>X>X>X>X>X>X>X>X>X>X>X>X>X>X>X-X-X:X:X*XoX}.}.oX].T.T.E.:.b b b b b b b b b b ",
"b b B S.{.].{.}.+X:X>X:X+X+X-X:X>X>X>X>X>X>X>X>X>X>X>X>X>X>X>X>X>X>X>X>X>X>X>X>X>X>X:X+X}.}.oXoXoX_.T.T.E.B.N b b b b b b b b b ",
"b b K ^.].].{.}.}.oX+XoX+X>X>X>X>X>X>X>X>X>X>X>X>X>X>X>X>X>X>X>X>X>X>X>X>X>X>X>X>X>X>X-X}.}.}.}.{.W.T.T.E.B.N b b b b b b b b b ",
"b b K ^.].].].{.+XoX{.}.%X>X>X>X>X>X>X>X>X>X>X>X>X>X>X>X>X>X>X>X>X>X>X>X>X>X>X:X-X:X-X+X}.}.}.{.Q.E.E.T.T.] b b b b b b b b b b ",
"b b B S.].].].+X>X:X+X{.}.-X:X>X:X>X>X>X>X>X>X>X>X>X>X>X>X>X>X>X>X>X>X>X>X>X:X+X+X-X+X{.{.{.{.W.Q.{.{._.A.C b b b b b b b b b b ",
"b b b K S.].].+X>X:X+X{.{.{.}.}.OX-X>X>X>X:X:X>X>X>X>X>X>X>X>X>X>X>X>X>X>X-XOX*X>X>X>X+X{.{._.T.{.{.{.U.T b b b b b b b b b b b ",
"b b b b Z.{.`.].{.{.{.{.{.{.{.{.{.{.+X+X+X}.}.}.*X:X>X>X>X>X:X-X>X>X>X>X>X:X{.*X>X>X>X+X{.{.`.T.E._.K.T b b b b b b b b b b b b ",
"b b b b &.S.U.`.].{.{.{.{.{.{.{.{.{.{.{.{.{.{.{.{.{.:X>X>X>X-X{.+X>X>X>X>X-X{.{.+X-X-X+X{._.T.m.m.l.L b b b b b b b b b b b b b ",
"b b b b b C J.`.`.{.{.{.{.].{.{.{.{.{.{.{.{.{.{.{.{.+X:X:X-X+X{.{.+X*X+X+X{.{.{.{.:X>X:X{.T.m.m.m.c.' b b b b b b b b b b b b b ",
"b b b b b J K.E.E._.`._.W.W.{.{.{.{.{.{.{.{.{.{.{.{.{.{.{.{.{.{.{.{.{.{.{.+X+XOX{.+X:X+X_.m.m.m.m.m.' b b b b b b b b b b b b b ",
"b b b b b K c.m.m.m.m.m.m.m.`.{.`.T.E.{.{.{.`._.{.{.{.{.{.{.{.{.{.{.{.{.{.:X>X-X`.E.W.E.m.m.m.m.g.} B b b b b b b b b b b b b b ",
"b b b b b B e.m.m.m.m.m.m.m.T.E.m.m.m.m.E.E.m.m.E.`.{.{.W.m.W.`.`.`.E.E.{.+X-X+XW.m.m.m.m.m.m.m.] b b b b b b b b b b b b b b b ",
"b b b b b b B } d.k.k.b.b.b.b.b.m.b.b.b.c.c.b.b.b.T._.E.m.m.b.m.m.m.b.b.m.E.E.m.b.b.b.b.b.b.b.b.' b b b b b b b b b b b b b b b ",
"b b b b b b b b B G J w.m.m.m.x.p.c.c.c.c.c.b.c.b.c.c.c.c.a.c.c.c.c.b.c.c.c.c.c.c.c.c.x.b.m.b.e.B b b b b b b b b b b b b b b b ",
"b b b b b b b b b b b C  .y.7.y D a.v.v.b.m.7._ w.x.n.x.5.F 5.m.c.x.x.x.x.x.x.x.x.x.x.| } e.} C b b b b b b b b b b b b b b b b ",
"b b b b b b b b b b b b b 5 @ o a G | d.p.p * a C T } ' B b l ,.x.v.v.k.} f.v.x.x.x.x.P b N b b b b b b b b b b b b b b b b b b ",
"b b b b b b b b b b b b b 4 X o g b b B n + o g b b b b b b a $ t 2.| L b T s.x.x.j.~ V b b b b b b b b b b b b b b b b b b b b ",
"b b b b b b b b b b b b b a X o g b b b h + O h b b b b b b h +   4 b b b b F L e 9 = c b b b b b b b b b b b b b b b b b b b b ",
"b b b b b b b b b b b b b g $ $ g b b b c - - h b b b b b b c > @ 4 b b b b b b 2 . 3 b b b b b b b b b b b b b b b b b b b b b ",
"b b b b b b b b b b b b b c : * z b b b c : 1 c b b b b b b b 7 # 8 b b b b b b 6 # d b b b b b b b b b b b b b b b b b b b b b ",
"b b b b b b b b b b b b b b , & z b b b c : < b b b b b b b b d # 7 b b b b b b < & z b b b b b b b b b b b b b b b b b b b b b ",
"b b b b b b b b b b b b b b 5 % x b b b c , 5 b b b b b b b b k % 7 b b b b b b , : c b b b b b b b b b b b b b b b b b b b b b ",
"b b b b b b b b b b b b b b 8 % x b b b b , 7 b b b b b b b b c * 5 b b b b b c 1 < b b b b b b b b b b b b b b b b b b b b b b ",
"b b b b b b b b b b b b b b k 7 c b b b b s f b b b b b b b b b 8 d b b b b b b 8 d b b b b b b b b b b b b b b b b b b b b b b ",
"b b b b b b b b b b b b b b b b b b b b b b b b b b b b b b b b b b b b b b b b b b b b b b b b b b b b b b b b b b b b b b b b ",
"b b b b b b b b b b b b b b b b b b b b b b b b b b b b b b b b b b b b b b b b b b b b b b b b b b b b b b b b b b b b b b b b ",
"b b b b b b b b b b b b b b b b b b b b b b b b b b b b b b b b b b b b b b b b b b b b b b b b b b b b b b b b b b b b b b b b ",
"b b b b b b b b b b b b b b b b b b b b b b b b b b b b b b b b b b b b b b b b b b b b b b b b b b b b b b b b b b b b b b b b ",
"b b b b b b b b b b b b b b b b b b b b b b b b b b b b b b b b b b b b b b b b b b b b b b b b b b b b b b b b b b b b b b b b ",
"b b b b b b b b b b b b b b b b b b b b b b b b b b b b b b b b b b b b b b b b b b b b b b b b b b b b b b b b b b b b b b b b "
};
