/* XPM */
static char *_d4051875d034f19fa994256d229c044UCuOdjEaf2bc3Vfl[] = {
/* columns rows colors chars-per-pixel */
"64 64 152 2 ",
"   c #4E6F29",
".  c #5A7929",
"X  c #A03A27",
"o  c #A53C28",
"O  c #A93E29",
"+  c #9E5326",
"@  c #9C5D2A",
"#  c #9E5530",
"$  c #A54329",
"%  c #AD422B",
"&  c #A34D29",
"*  c #B2442C",
"=  c #B34A2F",
"-  c #AA562A",
";  c #A75F2B",
":  c #AB582C",
">  c #B64D31",
",  c #B94E32",
"<  c #B65633",
"1  c #BC5435",
"2  c #B45C33",
"3  c #BF5A38",
"4  c #8E622B",
"5  c #956926",
"6  c #9C642A",
"7  c #9D6B2B",
"8  c #887921",
"9  c #957326",
"0  c #95762B",
"q  c #9B712B",
"w  c #977F2B",
"e  c #9C7D2C",
"r  c #987930",
"t  c #A5632D",
"y  c #A36B2B",
"u  c #B06E2A",
"i  c #B27E2A",
"p  c #AB6330",
"a  c #AA6831",
"s  c #A57330",
"d  c #C25C3B",
"f  c #C4613C",
"g  c #5F862A",
"h  c #638D2C",
"j  c #6C8D2A",
"k  c #768D2B",
"l  c #65912B",
"z  c #6A912B",
"x  c #6A982B",
"c  c #7C9F27",
"v  c #759329",
"b  c #7E9429",
"n  c #739A2A",
"m  c #7A9B28",
"M  c #7DA127",
"N  c #74A42B",
"B  c #7BA529",
"V  c #76A92C",
"C  c #7EAA2A",
"Z  c #7FB62D",
"A  c #7FB82D",
"S  c #878621",
"D  c #8E8D2B",
"F  c #94872C",
"G  c #9A8728",
"H  c #948B2D",
"J  c #99882F",
"K  c #849426",
"L  c #869927",
"P  c #8A9D2C",
"I  c #979026",
"U  c #94922E",
"Y  c #9A9D2A",
"T  c #9E8130",
"R  c #AC8B27",
"E  c #A9852A",
"W  c #B4932B",
"Q  c #BA9D2A",
"!  c #84A626",
"~  c #8FA424",
"^  c #87A825",
"/  c #8EAE25",
"(  c #82A228",
")  c #8BA32C",
"_  c #86AC2C",
"`  c #8CAA29",
"'  c #90AF24",
"]  c #92A829",
"[  c #8BB126",
"{  c #84B42C",
"}  c #88B228",
"|  c #82BB2E",
" . c #8BBD2D",
".. c #94B225",
"X. c #9AB525",
"o. c #9FB826",
"O. c #91BE2C",
"+. c #9BBC28",
"@. c #AFAC29",
"#. c #B9A82A",
"$. c #A2B426",
"%. c #A3BB26",
"&. c #A8BF27",
"*. c #A2B628",
"=. c #ACB529",
"-. c #A8BA28",
";. c #95C12C",
":. c #9BC32C",
">. c #ACC127",
",. c #A4C52B",
"<. c #AAC62B",
"1. c #ADC82B",
"2. c #B1C427",
"3. c #B4C628",
"4. c #BCC529",
"5. c #B4CA2A",
"6. c #BCCC29",
"7. c #B4CC32",
"8. c #C1CF29",
"9. c #C0CF2A",
"0. c #C6D127",
"q. c #CED524",
"w. c #C3D02B",
"e. c #C4D028",
"r. c #C3D02C",
"t. c #C4D02D",
"y. c #C2D032",
"u. c #C7D230",
"i. c #CAD332",
"p. c #CBD433",
"a. c #CBD435",
"s. c #CFD637",
"d. c #C7D43B",
"f. c #CED639",
"g. c #D0D637",
"h. c #D2D73A",
"j. c #D4D83B",
"k. c #D5D83C",
"l. c #D8DA3F",
"z. c #DADB41",
"x. c #DBDC42",
"c. c #DCDC43",
"v. c #DDDD44",
"b. c #E1DF47",
"n. c #E2DF48",
"m. c #E3E04A",
"M. c #E4E049",
"N. c #E7E24D",
"B. c #E8E34E",
"V. c #E9E44F",
"C. c #EAE350",
"Z. c #E9E450",
/* pixels */
"| | | | | | | | | | | | | | | | | | | | | | | | | | | | | | | | | | | | | | | | | | | | | | | | | | | | | | | | | | | | | | | | ",
"| | | | | | | | | | | | | | | | | | | | | | | | | | | | | | | | | | | | | | | | | | | | | | | | | | | | | | | | | | | | | | | | ",
"| | | | | | | | | | | | | | | | | | | | | | | | | | | | | | |  .;.,.,.,.:.;. .| | | | | | | | | | | | | | | | | | | | | | | | | ",
"| | | | | | | | | | | | | | | | | | | | | | | |  .:.:.;.| | :.6.a.j.l.l.k.f.y.1.O.| | | | | | | | | | | | | | | | | | | | | | | ",
"| | | | | | | | | | | | | | | | | | | | | | | :.5.8.r.6.,.:.a.b.B.Z.Z.Z.Z.B.B.b.f.,.|  .:.| | | | | | | | | | | | | | | | | | | ",
"| | | | | | | | | | | | | | | | | | | | | | O.8.k.b.b.c.s.f.N.Z.Z.Z.Z.Z.Z.Z.Z.Z.B.v.7.5.w.,.|  . .| | | | | | | | | | | | | | | ",
"| | | | | | | | | | | | | O.:.<.7.7.7.,.;.| ,.z.Z.Z.Z.Z.B.B.Z.Z.Z.Z.Z.Z.Z.Z.Z.Z.Z.Z.n.b.l.6.5.6.6.5.<.:. .| | | | | | | | | | | ",
"| | | | | | | | | | | :.5.6.8.k.B.B.N.M.x.d.y.b.Z.Z.Z.Z.Z.Z.Z.Z.Z.Z.Z.Z.Z.Z.Z.Z.Z.Z.Z.Z.N.n.m.n.c.h.t.8.6.,. .| | | | | | | | | ",
"| | | | | | | | |  .<.6.8.8.8.k.C.Z.Z.Z.Z.Z.N.N.Z.Z.Z.Z.Z.Z.Z.Z.Z.Z.Z.Z.Z.Z.Z.Z.Z.Z.Z.B.Z.Z.Z.Z.Z.B.x.8.8.8.6.,.| | | | | | | | ",
"| | | | | | | | | 1.8.8.8.8.8.r.k.n.N.N.N.N.M.B.Z.Z.Z.Z.Z.Z.Z.Z.Z.Z.Z.Z.Z.Z.Z.Z.Z.Z.Z.Z.Z.Z.Z.Z.Z.Z.N.i.8.8.8.8.<.| | | | | | | ",
"| | | | | | | | :.8.8.8.8.8.8.8.8.t.i.i.i.u.k.B.Z.Z.Z.Z.Z.Z.Z.Z.Z.Z.Z.Z.Z.Z.Z.Z.B.Z.Z.Z.Z.Z.Z.Z.Z.Z.M.t.8.8.8.8.8.,.| | | | | | ",
"| | | | | | | | 5.8.8.8.8.6.6.8.8.8.8.8.8.u.M.Z.V.Z.Z.Z.Z.Z.Z.Z.Z.Z.Z.Z.Z.Z.Z.Z.Z.m.b.N.B.Z.Z.Z.Z.N.k.8.8.8.8.8.8.6. .| | | | | ",
"| | | | | | |  .6.8.8.8.8.>.2.8.8.8.8.8.8.h.Z.Z.Z.Z.Z.Z.V.Z.Z.Z.Z.Z.Z.Z.Z.Z.Z.Z.Z.l.r.i.f.k.k.l.k.p.8.8.8.8.8.8.8.8.;.| | | | | ",
"| | | | | | |  .6.8.8.8.8.6.6.8.8.8.8.8.8.s.B.Z.Z.Z.B.N.Z.Z.Z.Z.Z.Z.Z.Z.Z.Z.Z.Z.Z.k.8.8.8.8.8.8.8.8.8.8.8.8.8.8.8.6.O.| | | | | ",
"| | | | | | | | 1.8.8.8.8.8.8.8.8.8.8.8.8.8.k.M.B.B.c.v.Z.Z.Z.Z.Z.Z.Z.Z.Z.Z.Z.Z.B.s.8.8.8.8.8.8.8.8.8.8.8.8.8.8.8.1.| | | | | | ",
"| | | | | | | | ;.6.6.8.8.8.8.8.8.8.8.8.8.8.8.u.h.s.t.h.C.Z.Z.Z.Z.Z.Z.Z.Z.Z.V.Z.n.t.8.8.8.8.8.8.8.8.8.8.8.8.8.6.3.>.,. .| | | | ",
"| | | | | | O.:.+.>.6.8.8.8.8.8.8.8.8.8.8.8.8.8.8.8.8.t.M.Z.V.Z.Z.Z.Z.Z.Z.Z.Z.B.h.8.8.8.8.8.8.8.8.8.8.8.8.8.8.6.%...>.<.| | | | ",
"| | | | | ,.5.%.>.6.8.8.8.8.8.8.8.8.8.8.8.8.8.8.8.8.8.8.h.B.Z.Z.Z.Z.Z.Z.Z.Z.N.j.8.8.8.8.8.8.8.8.8.8.8.8.8.8.8.8.6.o...5.;.| | | ",
"| | | | :.6.%.%.8.8.8.8.8.8.8.8.8.8.8.8.8.8.8.8.8.8.8.8.8.h.m.B.Z.Z.Z.B.N.c.s.8.8.8.8.8.8.8.8.8.8.8.t.k.t.8.8.8.8.>./ >.,.| | | ",
"| | |  .6.3...5.8.8.8.8.8.8.8.8.8.8.8.8.8.8.8.8.8.8.8.8.8.8.t.g.k.k.k.s.i.8.8.8.8.8.8.8.8.8.8.8.8.8.8.k.i.8.8.8.8.3./ %.5.| | | ",
"| | | ,.8.>...6.8.8.8.8.8.8.8.8.8.8.8.8.8.8.8.8.8.8.8.8.8.8.8.8.8.8.8.8.8.8.8.8.8.8.8.8.8.8.8.8.8.8.8.8.8.8.8.8.8.2./ &.5.| | | ",
"| | | 1.8.&...6.8.8.8.6.8.8.8.8.8.8.8.8.8.8.8.8.8.8.8.8.8.8.8.8.8.8.8.8.8.6.6.8.8.8.8.8.8.8.8.8.8.8.8.8.8.8.8.8.8.%./ 2.1.| | | ",
"| | | 5.8.>./ >.8.8.6.%.6.8.8.8.8.8.8.8.8.8.8.8.8.8.8.8.8.8.8.8.8.8.8.8.8.3.>.8.8.8.8.8.8.8.8.8.8.8.8.8.8.8.8.8.2.' ..6.,.| | | ",
"| | | 1.8.3.' ..6.8.6.2.8.8.8.8.8.8.8.8.8.8.8.8.8.8.8.8.8.8.8.8.8.8.8.8.8.6.6.8.8.8.8.8.8.8.8.8.8.8.8.8.8.8.6.>...' >.6. .| | | ",
"| | | :.8.6.o./ ..>.6.6.6.6.8.8.8.8.8.8.8.8.8.r.p.8.8.8.8.8.8.8.8.8.8.8.8.8.8.8.8.8.8.8.8.8.8.8.8.8.8.8.8.6.%./ ..>.6.,.| | | | ",
"| | |  .5.8.3.../ / ..X.X.>.8.8.8.8.8.8.8.8.8.s.z.8.8.8.8.8.8.8.8.8.8.8.8.8.8.8.8.8.8.8.8.8.8.8.8.8.8.8.8.8.>./ X.6.6.:.| | | | ",
"| | | | :.6.8.>.' / / / / >.8.8.8.8.8.8.8.8.8.t.t.8.8.8.8.3.6.8.8.8.8.8.8.8.8.8.8.8.8.8.8.8.8.8.8.8.8.q.e.8.&./ / o.6.6. .| | | ",
"| | | | | ,.8.6.../ / / / X.3.6.3.6.8.8.8.8.8.8.8.8.8.8.8.2.6.8.8.8.8.8.8.8.8.8.8.8.8.8.8.8.8.8.8.8.8.0.e.6.X./ / ..6.8.,.| | | ",
"| | | | | 1.8.%./ / / / / / ' ....3.8.8.8.8.8.8.8.8.8.8.8.8.8.8.8.8.8.8.8.8.8.8.8.8.8.8.8.8.8.8.6.6.8.8.6.%./ / / / 2.8.,.| | | ",
"| | | | ;.6.6.../ / / / / / / / / >.8.8.8.8.8.8.8.8.6.>.6.8.8.8.8.8.8.8.8.8.6.8.8.8.8.8.8.8.8.5...o.%.%.../ / o.%./ 2.8.,.| | | ",
"| | | | ;.8.6.o.X./ / / / / / / / ..5.8.8.8.8.8.8.6.%...6.8.8.8.8.8.8.8.8.6.%.>.6.8.8.8.8.8.6.o./ / / / / / / ..X...6.8.:.| | | ",
"| | | |  .6.6.>.X./ / / ' o./ / / / ..>.6.6.6.6.>.X./ / &.8.8.8.8.8.8.8.8.>.' / o.>.3.3.3.%.../ / / / / / / / / / o.8.6. .| | | ",
"| | | | | :.6.2.../ / / ..%./ / / / / / ......../ / / / ..3.8.8.8.8.8.8.2.../ / / / / ' / / / / / / / / / / / / X.6.8.:.| | | | ",
"| | | | | | ;.5.2.X./ / / / / / / / / / / / / / / / / / / ..>.6.6.6.3.%.../ / / / / / / / / / / / / / / / / / %.6.6.,.| | | | | ",
"| | | | | | | | :.5.X./ / / / / / / / / / / / / / / / / / / / ..X...' / / / / / / / / / / / / / / / / / / / / >.6.;.| | | | | | ",
"| | | | | | | | | 1.6.o./ / / / / / / / / / / / / / / / / / / / / / / / / / / / / / / / / / / / / / / / / / / >.5.| | | | | | | ",
"| | | | | | | | | O.6.6.2.%.%.o./ / / / / / / / m ! / / / / / / / / / / / / / / ' / / / / / / / / / / / ....o.6.5.| | | | | | | ",
"| | | | | | | | | | O.<.5.6.6.6.%.../ / / / / / M ^ / / / / / / / / / / / / / ..>.../ / / / / / / ! ! / &.6.6.6.:.| | | | | | | ",
"| | | | | | | | | | | | |  . .5.8.3.>.../ / / / / / / / ..../ / / / %.../ ../ / %.../ / / / ../ / ( n ' 3.1.;.;.| | | | | | | | ",
"| | | | | | | | | | | | | | | ,.6.6.4.>.' / / / / / / / $.%./ / / / %.../ &.%.....%.%./ / X.3.o.' / ' &.8.,.| | | | | | | | | | ",
"| | | | | | | | | | | | | | | | O.v j 2.>.' / / / / / X.R @.X./ / / / / %.-.] 5.6.6.*.&.>.6.6.:.>.2.6.8.5. .| | | | | | | | | | ",
"| | | | | | | | | | | | | | | | Z h   b 6.3.%.X.X.X.%.=.- E 3.o.....X.>.6.` n ` Y v . ` 5.5.;.| ;.<.5.,. .| | | | | | | | | | | ",
"| | | | | | | | | | | | | | | | | Z x g ` 6.8.6.6.8.3.k # : =.6.6.6.6.4.W ) ) D k h l V | | | | | | | | | | | | | | | | | | | | ",
"| | | | | | | | | | | | | | | | | | | A Z O.,.5.3.@. .N r = ; i Q #.W u y e G ` { | | | | | | | | | | | | | | | | | | | | | | | ",
"| | | | | | | | | | | | | | | | | | | | | | |  .` 9 D ) J > o o % : y I / / / / / { | | | | | | | | | | | | | | | | | | | | | | ",
"| | | | | | | | | | | | | | | | | | | | | | [ / / / ~ 5 & > X o @ L / / / / / / / } | | | | | | | | | | | | | | | | | | | | | | ",
"| | | | | | | | | | | | | | | | | | | | | C c ! ! ! M m w < X o 4 h n ! ! M M ^ ! m { | | | | | | | | | | | | | | | | | | | | | ",
"| | | | | | | | | | | | | | | | | | | | | { N n n n b { ) < o o q B z h j z h z n C | | | | | | | | | | | | | | | | | | | | | | ",
"| | | | | | | | | | | | | | | | | | | | | | | { { { F q 7 1 o o 7 L S K ( _ C B { | | | | | | | | | | | | | | | | | | | | | | | ",
"| | | | | | | | | | | | | | | | | | | | | | | | | | | _ e 3 o o + 8 K { | | | | | | | | | | | | | | | | | | | | | | | | | | | | ",
"| | | | | | | | | | | | | | | | | | | | | | | | | | | | U 3 % o 7 | | | | | | | | | | | | | | | | | | | | | | | | | | | | | | | ",
"| | | | | | | | | | | | | | | | | | | | | | | | | | | | T d % o 6 | | | | | | | | | | | | | | | | | | | | | | | | | | | | | | | ",
"| | | | | | | | | | | | | | | | | | | | | | | | | | | | s d * o @ { | | | | | | | | | | | | | | | | | | | | | | | | | | | | | | ",
"| | | | | | | | | | | | | | | | | | | | | | | | | | | { a d > O & _ | | | | | | | | | | | | | | | | | | | | | | | | | | | | | | ",
"| | | | | | | | | | | | | | | | | | | | | | | | | | | _ 2 d , O $ P | | | | | | | | | | | | | | | | | | | | | | | | | | | | | | ",
"| | | | | | | | | | | | | | | | | | | | | | | | | | | ) < f , % $ D | | | | | | | | | | | | | | | | | | | | | | | | | | | | | | ",
"| | | | | | | | | | | | | | | | | | | | | | | | | | | U 1 f 1 % o 0 | | | | | | | | | | | | | | | | | | | | | | | | | | | | | | ",
"| | | | | | | | | | | | | | | | | | | | | | | | | | | e 3 f , % O 6 { | | | | | | | | | | | | | | | | | | | | | | | | | | | | | ",
"| | | | | | | | | | | | | | | | | | | | | | | | | | { a 3 d = % % & ) | | | | | | | | | | | | | | | | | | | | | | | | | | | | | ",
"| | | | | | | | | | | | | | | | | | | | | | | | | | H = 1 , * % * % q { | | | | | | | | | | | | | | | | | | | | | | | | | | | | ",
"| | | | | | | | | | | | | | | | | | | | | | | | | { H : p t * y t y ) { | | | | | | | | | | | | | | | | | | | | | | | | | | | | ",
"| | | | | | | | | | | | | | | | | | | | | | | | | | { ) { _ H { { ) | | | | | | | | | | | | | | | | | | | | | | | | | | | | | | ",
"| | | | | | | | | | | | | | | | | | | | | | | | | | | | | | | | | | | | | | | | | | | | | | | | | | | | | | | | | | | | | | | | ",
"| | | | | | | | | | | | | | | | | | | | | | | | | | | | | | | | | | | | | | | | | | | | | | | | | | | | | | | | | | | | | | | | "
};
